X:1
T:Title
%%score { ( 1 3 ) | ( 2 4 ) }
L:1/8
Q:1/4=100
M:4/4
K:G
V:1 treble nm="Grand Piano"
V:3 treble 
V:2 bass 
V:4 bass 
V:1
 G2 G>A G2 D2 | B2 B>c B2 G2 | d2 d>e d2 B2 | B2 A>G A4 | G2 G>A G2 D2 | B2 B>c B2 G2 | %6
w: W.~J.~Kirkpatrick * * * *||||||
 d2 d>e d2 B2 | [GB]2 [FA]2 [B,DG]4 | [FA]2 [FA]2 [Fd]2 [Fd]2 | [G^c]2 [GB]>[Gc] [Ad]2 [FA]2 | %10
w: ||||
 [EG]>[EG] [DF][^CE] [DF][FA][Fd][Ad] |[M:9/8] e2 ^c- c z z C3 |[M:4/4] d2 B>c d2 B2 | %13
w: |||
 B2 G>A B2 G2 | G>G FE DB,DG | [DGB]2 [CFA]>[CFA] [G,B,DG]4 |] %16
w: |||
V:2
 [G,B,D]2 [G,B,D]>[G,CD] [G,B,D]2 [G,B,]2 | [G,DG]2 [G,DG]>[G,EG] [G,DG]2 [G,B,]2 | %2
 [G,B,G]2 [G,B,G]>[G,CG] [G,B,G]2 [G,DG]2 | [G,DG]2[K:bass] [F,A,D]>[E,A,^C] [D,F,D]4 | %4
 [G,B,D]2 [G,B,D]>[G,CD] [G,B,D]2 [G,B,]2 | [G,DG]2 [G,DG]>[G,EG] [G,DG]2 [G,B,]2 | %6
 [G,B,G]2 [G,B,G]>[G,CG] [G,B,G]2 [G,DG]2 | [D,D]2 [D,C]2 [G,,G,]4 | %8
 [D,D]2 [D,D]2 [D,A,]2 [D,A,]2 | [E,A,]2 [E,A,]>[E,A,] [F,A,]2 [D,A,]2 | %10
 [A,,A,]>[A,,A,] [A,,A,][A,,A,] [D,A,][D,D][D,A,][F,A,] | %11
[M:9/8][K:treble] [G,B,G]2 [A,G]- [A,G][K:bass] A,2 z3 | %12
[M:4/4][K:treble] [G,B,G]2 [G,DG]>[G,DG] [G,B,G]2 [G,DG]2 | %13
 [G,DG]2 [G,B,D]>[G,CD] [G,DG]2[K:bass] [G,B,D]2 | G,>G, F,E, D,B,,D,G, | D,2 D,>D, G,,4 |] %16
V:3
 x8 | x8 | x8 | x8 | x8 | x8 | x8 | x8 | x8 | x8 | x8 |[M:9/8] z3 z [Fd]2- [Fd]3 |[M:4/4] x8 | x8 | %14
 x8 | x8 |] %16
V:4
 x8 | x8 | x8 | x2[K:bass] x6 | x8 | x8 | x8 | x8 | x8 | x8 | x8 | %11
[M:9/8][K:treble] z3 z[K:bass] D,2- D,3 |[M:4/4][K:treble] x8 | x6[K:bass] x2 | x8 | x8 |] %16

